local/share/icons/dracula-icons-main/24/actions/archive-remove.svg

<svg height="24" viewBox="0 0 24 24" width="24" xmlns="http://www.w3.org/2000/svg"><style type="text/css" id="current-color-scheme">.ColorScheme-Text{color:#FFFFFF;}.ColorScheme-NegativeText{color:#da4453;}</style><g transform="translate(1 -1)"><path d="m4 4v16h11v-1h-10v-14h7v1h1v-1h6v10h1v-11zm8 2h-1v1h1zm0 1v1h1v-1zm0 1h-1v1h1zm0 1v1h1v-1zm0 1h-1v1 1h2v-1h-1z" style="fill:currentColor;fill-opacity:1;stroke:none" class="ColorScheme-Text" transform="translate(-1 1)"/><path d="m14 18h5v1h-5z" style="fill:currentColor;fill-opacity:1;stroke:none" class="ColorScheme-NegativeText"/></g></svg>

<?xml version="1.0" encoding="UTF-8"?>
<svg xmlns="http://www.w3.org/2000/svg" xmlns:xlink="http://www.w3.org/1999/xlink" width="24" height="24" viewBox="0 0 24 24">
<path fill-rule="nonzero" fill="rgb(100%, 100%, 100%)" fill-opacity="1" d="M 4 4 L 4 20 L 15 20 L 15 19 L 5 19 L 5 5 L 12 5 L 12 6 L 13 6 L 13 5 L 19 5 L 19 15 L 20 15 L 20 4 Z M 12 6 L 11 6 L 11 7 L 12 7 Z M 12 7 L 12 8 L 13 8 L 13 7 Z M 12 8 L 11 8 L 11 9 L 12 9 Z M 12 9 L 12 10 L 13 10 L 13 9 Z M 12 10 L 11 10 L 11 12 L 13 12 L 13 11 L 12 11 Z M 12 10 "/>
<path fill-rule="nonzero" fill="rgb(85.490196%, 26.666667%, 32.54902%)" fill-opacity="1" d="M 15 17 L 20 17 L 20 18 L 15 18 Z M 15 17 "/>
</svg>
